static/assets/img/icons/theme/communication/archive.svg

<svg height="24" viewBox="0 0 24 24" width="24" xmlns="http://www.w3.org/2000/svg"><g fill="none" fill-rule="evenodd"><path d="m0 0h24v24h-24z" opacity="0"/><path d="m4.5 3h15c.8284271 0 1.5.67157288 1.5 1.5v15c0 .8284271-.6715729 1.5-1.5 1.5h-15c-.82842712 0-1.5-.6715729-1.5-1.5v-15c0-.82842712.67157288-1.5 1.5-1.5zm3.5 2c-.55228475 0-1 .44771525-1 1s.44771525 1 1 1h8c.5522847 0 1-.44771525 1-1s-.4477153-1-1-1z" fill="#000"/></g></svg>

<svg width="24px" height="24px" viewBox="0 0 24 24" version="1.1" xmlns="http://www.w3.org/2000/svg" xmlns:xlink="http://www.w3.org/1999/xlink">
    <title>Icon For Archive</title>
    <g stroke="none" stroke-width="1" fill="none" fill-rule="evenodd">
        <rect opacity="0" x="0" y="0" width="24" height="24"></rect>
        <path d="M4.5,3 L19.5,3 C20.3284271,3 21,3.67157288 21,4.5 L21,19.5 C21,20.3284271 20.3284271,21 19.5,21 L4.5,21 C3.67157288,21 3,20.3284271 3,19.5 L3,4.5 C3,3.67157288 3.67157288,3 4.5,3 Z M8,5 C7.44771525,5 7,5.44771525 7,6 C7,6.55228475 7.44771525,7 8,7 L16,7 C16.5522847,7 17,6.55228475 17,6 C17,5.44771525 16.5522847,5 16,5 L8,5 Z" fill="#000000"></path>
    </g>
</svg>
